build/img-landing/svg/cap11.svg

<svg width="66" height="66" viewBox="0 0 66 66" fill="none" xmlns="http://www.w3.org/2000/svg">
<path d="M54.3006 10.6406H40.464V0H25.549V10.6406H11.7124C9.94549 10.6406 8.51636 12.0697 8.51636 13.8366V62.8039C8.51636 64.5709 9.94549 66 11.7124 66H54.2876C56.0545 66 57.4837 64.5709 57.4837 62.8039V13.8366C57.4967 12.0827 56.0546 10.6406 54.3006 10.6406ZM27.6797 2.13071H38.3333V14.902H27.6797V2.13071ZM54.3006 63.8693H11.7124C11.1278 63.8693 10.6471 63.3886 10.6471 62.8039V13.8366C10.6471 13.252 11.1278 12.7713 11.7124 12.7713H25.549V17.0327H40.451V12.7713H54.2876C54.8723 12.7713 55.353 13.252 55.353 13.8366V62.8039H55.366C55.366 63.3886 54.8853 63.8693 54.3006 63.8693Z" fill="#E30613"/>
<path d="M13.843 22.3594V41.5228H35.1371V22.3594H13.843ZM19.2737 39.3921C19.7674 36.9626 21.9241 35.1307 24.4966 35.1307C27.069 35.1307 29.2127 36.9626 29.7064 39.3921H19.2737ZM22.4308 30.8693C22.4308 29.726 23.3532 28.8035 24.4966 28.8035C25.6399 28.8035 26.5623 29.726 26.5623 30.8693C26.5493 32.0126 25.6269 32.935 24.4966 32.935C23.3532 32.935 22.4308 32.0126 22.4308 30.8693ZM33.0064 39.3921H31.8631C31.4993 36.8457 29.8493 34.715 27.5887 33.6886C28.2643 32.948 28.693 31.9606 28.693 30.8823C28.693 28.5697 26.8092 26.6858 24.4966 26.6858C22.184 26.6858 20.3001 28.5697 20.3001 30.8823C20.3001 31.9606 20.7288 32.948 21.4044 33.6886C19.1438 34.728 17.4938 36.8587 17.13 39.3921H15.9867V24.4902H33.0064V39.3921Z" fill="#E30613"/>
<path d="M46.8432 22.3594H44.5436V24.4902H46.8432V22.3594Z" fill="#E30613"/>
<path d="M51.1955 22.3594H48.8959V24.4902H51.1955V22.3594Z" fill="#E30613"/>
<path d="M42.6727 22.3594H40.373V24.4902H42.6727V22.3594Z" fill="#E30613"/>
<path d="M52.1699 30.8693H38.3333V33H52.1699V30.8693Z" fill="#E30613"/>
<path d="M52.1699 39.3921H38.3333V41.5228H52.1699V39.3921Z" fill="#E30613"/>
<path d="M52.1698 47.902H13.843V50.0327H52.1698V47.902Z" fill="#E30613"/>
<path d="M52.1698 56.4248H13.843V58.5555H52.1698V56.4248Z" fill="#E30613"/>
</svg>

<svg width="66" height="66" viewBox="0 0 66 66" fill="none" xmlns="http://www.w3.org/2000/svg"><path d="M54.3 10.64H40.465V0H25.549v10.64H11.712a3.194 3.194 0 0 0-3.196 3.197v48.967A3.194 3.194 0 0 0 11.712 66h42.576a3.194 3.194 0 0 0 3.196-3.196V13.837c.013-1.754-1.43-3.196-3.183-3.196zM27.68 2.13h10.653v12.772H27.68V2.131zM54.3 63.87H11.713a1.07 1.07 0 0 1-1.065-1.066V13.837c0-.585.48-1.066 1.065-1.066H25.55v4.262h14.902V12.77h13.837a1.07 1.07 0 0 1 1.065 1.066v48.967h.013a1.07 1.07 0 0 1-1.065 1.065z" fill="#E30613"/><path d="M13.843 22.36v19.163h21.294V22.359H13.843zm5.43 17.032a5.337 5.337 0 0 1 5.224-4.261 5.323 5.323 0 0 1 5.21 4.261H19.273zm3.158-8.523c0-1.143.922-2.066 2.066-2.066 1.143 0 2.065.923 2.065 2.066-.013 1.144-.935 2.066-2.065 2.066a2.063 2.063 0 0 1-2.066-2.066zm10.575 8.523h-1.143a7.425 7.425 0 0 0-4.274-5.703 4.17 4.17 0 0 0 1.104-2.807 4.203 4.203 0 0 0-4.196-4.196 4.203 4.203 0 0 0-4.197 4.196 4.17 4.17 0 0 0 1.104 2.807 7.468 7.468 0 0 0-4.274 5.703h-1.143V24.49h17.02v14.902zM46.843 22.36h-2.3v2.13h2.3v-2.13zm4.353 0h-2.3v2.13h2.3v-2.13zm-8.523 0h-2.3v2.13h2.3v-2.13zm9.497 8.51H38.333V33H52.17v-2.13zm0 8.522H38.333v2.13H52.17v-2.13zm0 8.51H13.843v2.13H52.17v-2.13zm0 8.523H13.843v2.13H52.17v-2.13z" fill="#E30613"/></svg>
